build/img/sprite/icon-graphic.svg

<svg width="41" height="42" viewBox="0 0 41 42" fill="none" xmlns="http://www.w3.org/2000/svg">
<path fill-rule="evenodd" clip-rule="evenodd" d="M38.5429 35.0134C38.5429 35.0134 7.36406 35.0007 7.35797 35.0008C6.74437 34.9927 6.41299 35.0395 5.5963 35.4054L0.548091 37.6655C0.209739 37.8157 -0.000319602 38.1374 3.65018e-07 38.505C0.000321064 38.8687 0.215825 39.1989 0.545688 39.3446C2.20133 40.0881 5.59606 41.6079 5.59606 41.6079C6.36038 41.9503 6.69168 41.9887 7.23472 41.9887L19.4558 42C19.7875 42 20.0564 41.7302 20.0564 41.3974C20.0564 41.0647 19.7875 40.7949 19.4558 40.7949C19.4558 40.7949 8.02611 40.7952 7.97662 40.7956V39.1092H34.515V40.7949H22.4381C22.1064 40.7949 21.8375 41.0647 21.8375 41.3974C21.8375 41.7302 22.1064 42 22.4381 42H38.543C39.8977 42 41 40.8961 41 39.5393V37.4741C40.9999 36.1173 39.8977 35.0134 38.5429 35.0134ZM3.48523 37.6702V39.3424L2.90687 39.0833L2.90676 39.0833L2.90664 39.0832L2.90653 39.0832C2.47737 38.891 2.04823 38.6988 1.61848 38.506L3.48523 37.6702ZM4.68647 37.1324V39.8806C5.12493 40.0769 6.59662 40.7243 6.77537 40.7655V36.248C6.59662 36.2893 4.68647 37.1324 4.68647 37.1324ZM7.9767 37.9042V36.2178C8.02619 36.2182 8.07712 36.2185 8.13118 36.2185H34.5151V37.9042H7.9767ZM38.5429 40.7949C39.2354 40.7949 39.7987 40.2317 39.7987 39.5393V37.474C39.7987 36.7817 39.2353 36.2185 38.5429 36.2185H35.7163V40.7949H38.5429Z" fill="black"/>
<path fill-rule="evenodd" clip-rule="evenodd" d="M1.06259 32L19.9413 31.9977C20.2828 31.9977 20.5596 31.7241 20.5596 31.3867C20.5595 31.0493 20.2826 30.7758 19.9412 30.7759L1.23662 30.7781V5.84759H3.70863V26.2707C3.70863 26.8252 4.16552 27.2762 4.72719 27.2762H30.3662C30.79 27.2762 31.1583 27.0502 31.3048 26.7004C31.4508 26.3515 31.3541 25.9619 31.0459 25.6581L10.9531 5.84759H33.6949V25.2193C33.6949 25.7901 34.1653 26.2544 34.7435 26.2544H37.469C38.7342 26.2544 39.7635 27.2686 39.7635 28.5151C39.7635 29.7617 38.7342 30.7758 37.469 30.7758H22.78C22.4384 30.7758 22.1616 31.0493 22.1616 31.3867C22.1616 31.7241 22.4384 31.9976 22.78 31.9976H37.4689C39.4159 31.9976 41 30.4354 41 28.5151V5.61079C41 3.68923 39.4159 2.12599 37.4689 2.12599H34.7434C34.1652 2.12599 33.6948 2.58932 33.6948 3.15886V4.62582H9.71374L5.34674 0.320096C5.03775 0.0154475 4.64178 -0.0787979 4.28736 0.0678242C3.93287 0.214609 3.70566 0.579047 3.70863 0.992032V4.62574H1.0625C0.476676 4.62574 0 5.09729 0 5.67693V30.9489C0 31.5284 0.476676 32 1.06259 32ZM34.9315 3.34776H37.4689C38.7341 3.34776 39.7634 4.36287 39.7634 5.61071V25.87C39.1458 25.3481 38.344 25.0325 37.4689 25.0325H34.9315V3.34776ZM29.6968 26.0545L4.94525 1.65045V26.0545H7.5978V25.1965C7.5978 24.8591 7.87464 24.5856 8.21611 24.5856C8.55758 24.5856 8.83442 24.8591 8.83442 25.1965V26.0545H11.4891V24.3891C11.4891 24.0517 11.766 23.7782 12.1074 23.7782C12.4489 23.7782 12.7257 24.0517 12.7257 24.3891V26.0545H15.3782V25.1965C15.3782 24.8591 15.655 24.5856 15.9965 24.5856C16.338 24.5856 16.6148 24.8591 16.6148 25.1965V26.0545H19.2697V24.3891C19.2697 24.0517 19.5465 23.7782 19.888 23.7782C20.2295 23.7782 20.5063 24.0517 20.5063 24.3891V26.0545H23.1588V25.1965C23.1588 24.8591 23.4355 24.5856 23.7771 24.5856C24.1186 24.5856 24.3954 24.8591 24.3954 25.1965V26.0545H29.6968Z" fill="black"/>
<path fill-rule="evenodd" clip-rule="evenodd" d="M16.6877 22H10.4888C10.0471 22 9.76179 21.7074 9.76172 21.2544V14.9056C9.76172 14.666 9.76172 14.2202 10.1646 14.0496C10.561 13.8818 10.8466 14.1763 11.055 14.3914L17.1918 20.6744C17.4006 20.8881 17.6864 21.1808 17.5227 21.587C17.3562 22 16.9213 22 16.6877 22ZM15.7808 20.8518L10.8808 15.8349V20.8518H15.7808Z" fill="black"/>
</svg>

<svg width="41" height="42" fill="none" xmlns="http://www.w3.org/2000/svg"><path fill-rule="evenodd" clip-rule="evenodd" d="M38.543 35.013l-31.185-.012c-.614-.008-.945.038-1.762.404l-5.048 2.26a.908.908 0 00-.548.84.92.92 0 00.546.84c1.655.743 5.05 2.263 5.05 2.263.764.342 1.096.38 1.639.38l12.22.012a.602.602 0 000-1.205H7.978V39.11h26.538v1.686H22.438a.602.602 0 000 1.205h16.105A2.462 2.462 0 0041 39.54v-2.066a2.462 2.462 0 00-2.457-2.46zM3.485 37.67v1.672l-.578-.259-1.289-.577 1.867-.836zm1.201-.538v2.749c.439.196 1.91.843 2.09.885v-4.518c-.18.041-2.09.884-2.09.884zm3.29.772v-1.686h26.539v1.686H7.977zm30.567 2.89c.692 0 1.256-.562 1.256-1.255v-2.065c0-.692-.564-1.255-1.256-1.255h-2.827v4.576h2.827zM1.063 32l18.878-.002a.615.615 0 00.619-.611.615.615 0 00-.619-.611l-18.704.002V5.848h2.472V26.27c0 .554.457 1.005 1.018 1.005h25.64c.423 0 .791-.226.938-.576.146-.348.05-.738-.26-1.042L10.954 5.848h22.742v19.371c0 .571.47 1.035 1.048 1.035h2.726c1.265 0 2.294 1.015 2.294 2.261 0 1.247-1.029 2.26-2.294 2.26H22.78a.615.615 0 00-.618.612c0 .337.276.61.618.61h14.689c1.947 0 3.531-1.562 3.531-3.482V5.611c0-1.922-1.584-3.485-3.531-3.485h-2.726c-.578 0-1.048.463-1.048 1.033v1.467H9.714L5.347.32c-.31-.305-.705-.399-1.06-.252-.354.147-.581.511-.578.924v3.634H1.062C.478 4.626 0 5.097 0 5.676V30.95C0 31.529.477 32 1.063 32zM34.93 3.348h2.538c1.265 0 2.294 1.015 2.294 2.263V25.87a3.545 3.545 0 00-2.294-.838H34.93V3.348zm-5.234 22.707L4.945 1.65v24.405h2.653v-.858c0-.338.277-.611.618-.611.342 0 .618.273.618.61v.858h2.655V24.39c0-.337.277-.61.618-.61.342 0 .619.273.619.61v1.666h2.652v-.858c0-.338.277-.611.618-.611.342 0 .619.273.619.61v.858h2.655V24.39c0-.337.277-.61.618-.61.341 0 .618.273.618.61v1.666h2.653v-.858c0-.338.277-.611.618-.611.342 0 .618.273.618.61v.858h5.302z" fill="#000"/><path fill-rule="evenodd" clip-rule="evenodd" d="M16.688 22h-6.2c-.44 0-.726-.293-.726-.746v-6.348c0-.24 0-.686.403-.856.396-.168.682.126.89.341l6.137 6.283c.209.214.494.507.33.913-.166.413-.6.413-.834.413zm-.907-1.148l-4.9-5.017v5.017h4.9z" fill="#000"/></svg>
